X:852
T:Smolanach
R:Reel
B:The Athole Collection
M:C|
L:1/8
K:A
f|eAcA eA c2|fBBc fBBa|eAcA eAca|cAAB cAA:|
a|fefa fecd|fBBc FBBa|1 fefa feca|cAAB cAA:|2 fefa eaca|cAAB cAA||

